X:525
T: Suo luo lian
N: C0268
O: China,Fujian, Quanzhou
S: II, 601]
N: urspruenglich zum xifu (Fest: Buddha waschen)
N: Vorspiel weggelassen.
R: Tanzlied, Gewu]
M: 2/4
L: 1/8
K: G
B2Ad | B4 | ABAG | E4
EE2G | A4 | AG2A | E4
B2Ad | AB2G | AGEG | AGA2
A2Bd | ABAG | EE2G | A4
AG2A | E4
E2AB | GAzE | AGEA | GEE2
EE2G | A4 | AG2A | E4
B2Ad | AB2G | AGEG | AGA2
A2Bd | ABAG | EE2G | A4
AG2A | E4
E2AB | GAzE | AGEA | GEE2
EE2G | A4 | AG2A | E4

